docs/img/flag-tj.svg

<svg width="75" height="53" viewBox="0 0 75 53" fill="none" xmlns="http://www.w3.org/2000/svg">
<path d="M0 17.125H75V35.875H0V17.125Z" fill="#E6E7E8"/>
<path d="M63.2812 0.71875H11.7188C3.95273 0.71875 0 6.49023 0 13.6094V17.125H75V13.6094C75 6.49023 71.0473 0.71875 63.2812 0.71875Z" fill="#EC1C24"/>
<path d="M0 39.3906C0 46.5098 3.95273 52.2812 11.7188 52.2812H63.2812C71.0473 52.2812 75 46.5098 75 39.3906V35.875H0V39.3906Z" fill="#128807"/>
<path fill-rule="evenodd" clip-rule="evenodd" d="M43.1787 32.781C39.9091 31.8156 36.431 31.8095 33.158 32.7634C33.0455 32.795 33.0022 32.7716 32.9729 32.6591C32.9299 32.4763 32.8771 32.296 32.8147 32.1189C32.776 31.9993 32.8065 31.9607 32.9237 31.9243C33.6854 31.7061 34.46 31.5351 35.2428 31.4122C37.9419 30.9921 40.7001 31.1657 43.3252 31.9208C43.4623 31.9607 43.4928 32.0087 43.4448 32.1376C43.378 32.3204 43.3287 32.5103 43.276 32.6978C43.2573 32.7646 43.2373 32.8056 43.1787 32.781Z" fill="#F7C200"/>
<path fill-rule="evenodd" clip-rule="evenodd" d="M30.7968 24.4022C30.8894 24.1163 30.9597 23.869 31.0499 23.6299C31.0968 23.5057 31.071 23.4413 30.962 23.3721C30.7504 23.2324 30.5513 23.0748 30.3667 22.901C30.5976 22.901 30.8331 22.887 31.0616 22.9069C31.2456 22.9233 31.3159 22.8483 31.3593 22.6866C31.4179 22.4627 31.4976 22.2448 31.5866 21.967C31.6792 22.2495 31.7601 22.4803 31.8245 22.7182C31.8644 22.867 31.937 22.9139 32.0917 22.9034C32.3284 22.8893 32.5663 22.8999 32.8593 22.8999C32.6261 23.0733 32.4362 23.2221 32.2347 23.3522C32.1104 23.4331 32.0718 23.5104 32.1304 23.6581C32.2206 23.8831 32.2851 24.1198 32.3753 24.3999C32.1187 24.2159 31.9065 24.067 31.6991 23.9077C31.6159 23.8444 31.5573 23.8467 31.4706 23.9112C31.2632 24.0729 31.0487 24.2217 30.7968 24.4022Z" fill="#F7C200"/>
<path fill-rule="evenodd" clip-rule="evenodd" d="M43.453 22.9078C43.7015 22.9078 43.9522 22.8985 44.2007 22.9114C44.3343 22.9196 44.387 22.8692 44.4222 22.7461C44.4913 22.5059 44.5745 22.2715 44.6694 21.9785C44.7679 22.2715 44.8546 22.5141 44.9226 22.7614C44.9554 22.8832 45.0163 22.9137 45.1347 22.9114C45.3843 22.9043 45.6339 22.9078 45.9421 22.9078C45.6878 23.0918 45.4839 23.2547 45.2694 23.3977C45.1757 23.4598 45.1663 23.5184 45.2003 23.6168C45.287 23.8618 45.3632 24.1114 45.4604 24.409C45.2144 24.2321 45.0034 24.0914 44.8089 23.9332C44.7011 23.8465 44.6308 23.8559 44.53 23.9344C44.3343 24.0891 44.1269 24.2297 43.8819 24.4067C43.9757 24.1114 44.0507 23.8606 44.1386 23.6157C44.1761 23.5137 44.162 23.4575 44.0706 23.3965C43.8573 23.2512 43.6522 23.0953 43.4448 22.9418L43.453 22.9078Z" fill="#F7C200"/>
<path fill-rule="evenodd" clip-rule="evenodd" d="M37.3592 20.5619C37.4459 20.3005 37.5221 20.0451 37.6158 19.7896C37.6498 19.6935 37.5924 19.6654 37.5385 19.6255L36.8564 19.1298C37.1541 19.1298 37.3955 19.1181 37.6369 19.1334C37.7963 19.1462 37.8549 19.0865 37.8959 18.9412C37.9571 18.7061 38.0431 18.4783 38.1525 18.2615C38.2322 18.5005 38.3201 18.7384 38.3857 18.981C38.4197 19.1017 38.4783 19.1369 38.5967 19.1334C38.8463 19.1251 39.0982 19.1298 39.4064 19.1298C39.1686 19.3009 38.9811 19.4498 38.7842 19.5822C38.6611 19.6619 38.6166 19.7345 38.6764 19.8845C38.7701 20.1083 38.8299 20.3462 38.9213 20.6287C38.6682 20.4447 38.4525 20.2959 38.2486 20.14C38.1643 20.0755 38.1045 20.072 38.0201 20.1376C37.8611 20.2621 37.6977 20.381 37.5303 20.4939C37.4799 20.5291 37.4389 20.5876 37.3592 20.5619Z" fill="#F7C200"/>
<path fill-rule="evenodd" clip-rule="evenodd" d="M29.3669 26.6875C29.6235 26.6875 29.8802 26.6793 30.1356 26.6887C30.2411 26.691 30.2915 26.6594 30.322 26.5551C30.3946 26.3102 30.479 26.0676 30.5985 25.8156C30.6712 26.0301 30.7509 26.2422 30.8071 26.4613C30.8505 26.6324 30.9255 26.7074 31.1153 26.6887C31.3392 26.6699 31.5665 26.6875 31.8548 26.6875C31.6263 26.8528 31.4446 27.0016 31.2478 27.1223C31.1013 27.2149 31.0685 27.3051 31.1376 27.4703C31.2267 27.6836 31.2806 27.9086 31.3685 28.184C31.1188 28.0047 30.9126 27.8641 30.7157 27.7082C30.6126 27.625 30.5376 27.6309 30.4392 27.7141C30.295 27.8324 30.1392 27.9367 29.9821 28.0469C29.9329 28.082 29.8919 28.1383 29.8075 28.1184C29.8849 27.8805 29.961 27.6402 30.0478 27.407C30.0911 27.2922 30.0642 27.2289 29.9634 27.161C29.756 27.0227 29.5567 26.8703 29.354 26.7238C29.361 26.7098 29.3622 26.6957 29.3669 26.6875Z" fill="#F7C200"/>
<path fill-rule="evenodd" clip-rule="evenodd" d="M44.9175 28.116C45.0065 27.8476 45.0886 27.5875 45.18 27.3273C45.2128 27.2371 45.1401 27.216 45.0956 27.182C44.8835 27.0261 44.6761 26.8726 44.4136 26.6874C44.7124 26.6874 44.955 26.6781 45.1952 26.6886C45.3382 26.6957 45.4085 26.6593 45.446 26.5117C45.5121 26.2729 45.6008 26.041 45.7108 25.8191C45.7894 26.0582 45.8784 26.2949 45.944 26.5386C45.9792 26.6605 46.0401 26.691 46.1573 26.6886C46.4069 26.6792 46.6554 26.6874 46.9683 26.6874C46.7175 26.8656 46.5159 27.0203 46.3085 27.1609C46.2089 27.2277 46.1819 27.291 46.2229 27.4058C46.3097 27.646 46.387 27.891 46.4796 28.1874C46.2229 28.0011 46.0108 27.8499 45.8034 27.6941C45.719 27.6273 45.6581 27.6273 45.5749 27.6941C45.4155 27.8171 45.2526 27.9332 45.0886 28.0503C45.0394 28.0843 44.9983 28.1441 44.9175 28.116Z" fill="#F7C200"/>
<path fill-rule="evenodd" clip-rule="evenodd" d="M33.5852 21.5736C33.6543 21.3662 33.707 21.1529 33.7926 20.9537C33.8617 20.7802 33.8477 20.6712 33.673 20.5716C33.4832 20.4591 33.3086 20.3115 33.0801 20.1451C33.3824 20.1451 33.6262 20.138 33.8676 20.1486C34 20.1533 34.0668 20.1181 34.1066 19.9775C34.1723 19.7408 34.2578 19.5064 34.3539 19.2181C34.4512 19.5146 34.5379 19.7619 34.6129 20.0103C34.6434 20.1146 34.6902 20.1498 34.7969 20.1486C35.0535 20.138 35.3078 20.1451 35.5797 20.1802C35.3805 20.3255 35.1812 20.4755 34.9797 20.6138C34.8695 20.6853 34.8437 20.7533 34.8883 20.8763C34.9773 21.1072 35.0453 21.3462 35.0863 21.6052C34.8953 21.4634 34.6961 21.331 34.5109 21.1833C34.4008 21.0955 34.3164 21.0861 34.1992 21.1798C34.0164 21.3287 33.8172 21.4623 33.6262 21.6017C33.6145 21.59 33.6004 21.583 33.5852 21.5736Z" fill="#F7C200"/>
<path fill-rule="evenodd" clip-rule="evenodd" d="M40.6977 20.1439C40.9543 20.1439 41.2074 20.1404 41.4629 20.1474C41.5707 20.1486 41.6211 20.1169 41.6504 20.0115C41.7242 19.7607 41.8121 19.5134 41.9094 19.2169C42.0078 19.5158 42.0945 19.763 42.1695 20.0115C42.2 20.1158 42.2504 20.1486 42.3559 20.1474C42.6164 20.1354 42.8776 20.146 43.1363 20.1791C42.9301 20.3291 42.7273 20.4826 42.5188 20.6267C42.4227 20.6888 42.4039 20.7509 42.4414 20.8587C42.5281 21.0943 42.6008 21.3334 42.6418 21.6029C42.4555 21.4658 42.2609 21.3369 42.0816 21.1904C41.9586 21.0884 41.8637 21.0849 41.7406 21.1892C41.5568 21.3415 41.3563 21.4724 41.143 21.5795C41.2168 21.3545 41.2824 21.1201 41.3668 20.8974C41.416 20.7603 41.3961 20.683 41.2707 20.6044C41.0715 20.4755 40.884 20.3267 40.6895 20.1873L40.6977 20.1439Z" fill="#F7C200"/>
<path fill-rule="evenodd" clip-rule="evenodd" d="M34.8914 31.1865C34.5551 31.1748 34.2809 31.0177 34.0348 30.8021C33.975 30.7506 33.9785 30.7189 34.043 30.6779C34.1988 30.5771 34.4344 30.5748 34.5199 30.4447C34.6031 30.317 34.5574 30.1037 34.6348 29.9396C34.7555 29.6748 34.7918 29.6689 35.0004 29.881C35.025 29.9092 35.0508 29.9361 35.0742 29.9654C35.3274 30.2748 35.3274 30.2748 35.7258 30.3521C35.9203 30.3873 35.9262 30.4025 35.8242 30.5724C35.6109 30.9217 35.3297 31.1724 34.8914 31.1865Z" fill="#F7C200"/>
<path fill-rule="evenodd" clip-rule="evenodd" d="M38.1515 30.9214C37.7414 30.905 37.4554 30.6858 37.2105 30.387C37.1601 30.3225 37.1824 30.2921 37.2515 30.2663C37.3769 30.2206 37.5 30.1714 37.6335 30.1632C37.7402 30.162 37.7847 30.1292 37.7976 30.0132C37.8164 29.8198 37.9136 29.6604 38.0402 29.5128C38.1035 29.4378 38.1515 29.4284 38.2171 29.5104C38.3402 29.6639 38.4457 29.8268 38.4867 30.0225C38.5031 30.1011 38.5359 30.1362 38.6191 30.1432C38.7632 30.1573 38.905 30.1889 39.0386 30.2534C39.1007 30.285 39.1218 30.3155 39.0691 30.3811C38.8359 30.6905 38.55 30.9038 38.1515 30.9214Z" fill="#F7C200"/>
<path fill-rule="evenodd" clip-rule="evenodd" d="M41.4796 31.1864C41.0085 31.1841 40.5375 30.8489 40.4097 30.4927C40.3804 30.4142 40.4097 30.4001 40.48 30.3849C40.6147 30.3534 40.7534 30.3424 40.8914 30.3521C40.9863 30.3591 41.0203 30.331 41.0484 30.2384C41.1011 30.0368 41.2359 29.8892 41.3941 29.7579C41.4562 29.7017 41.4972 29.7075 41.5406 29.7825C41.6308 29.9396 41.7257 30.1025 41.721 30.2888C41.7187 30.4329 41.7808 30.4821 41.9085 30.5103C42.0241 30.5379 42.1329 30.5885 42.2285 30.6591C42.2964 30.7048 42.3082 30.7435 42.2425 30.8056C42.0023 31.0317 41.7269 31.1806 41.4796 31.1864Z" fill="#F7C200"/>
<path fill-rule="evenodd" clip-rule="evenodd" d="M43.209 29.4845C42.5516 29.2924 42.1051 28.8588 41.8262 28.2377L41.7547 28.2998C40.5301 29.3017 38.7265 28.6818 38.4289 27.1279C38.307 26.4881 38.3703 25.8224 38.409 25.1697C38.4266 24.8814 38.7266 24.6658 39.0195 24.6482C39.2785 24.6353 39.4707 24.7595 39.6348 24.947C39.8703 24.3283 39.6113 23.5748 39.0371 23.1728C38.7451 22.9707 38.394 22.8719 38.0394 22.892C37.6849 22.9122 37.3472 23.0502 37.0801 23.2841C36.5293 23.7541 36.4332 24.5603 36.6324 24.9435C36.8586 24.6705 37.1398 24.565 37.4715 24.7056C37.7984 24.8474 37.884 25.1287 37.8769 25.4662C37.8629 25.9127 37.8746 26.3603 37.8746 26.8068C37.8676 27.8052 37.032 28.697 36.0394 28.7732C35.7514 28.802 35.4605 28.7698 35.1857 28.6787C34.9109 28.5877 34.6584 28.4398 34.4445 28.2447C33.8996 29.4787 32.4418 29.9732 31.2324 29.2103C31.2172 29.6674 31.5699 30.1654 32.041 30.3541C33.0113 30.7361 34.2219 30.1361 34.5066 29.1318C34.5312 29.0509 34.5523 28.9677 34.5805 28.8611C34.6449 28.9467 34.6883 29.0111 34.734 29.0756C34.9836 29.4002 35.2859 29.6533 35.6867 29.7529C36.4191 29.9334 37.0074 29.665 37.5008 29.14C37.7949 28.8306 37.9777 28.4556 38.1195 28.0455C38.1887 28.1006 38.191 28.1674 38.2109 28.2224C38.341 28.567 38.525 28.881 38.7723 29.1529C39.6348 30.0963 40.8734 30.0166 41.6035 28.9748C41.6269 28.9431 41.6305 28.8904 41.6879 28.8939C41.6973 28.9092 41.709 28.9185 41.7113 28.9291C41.8836 30.0342 43.0566 30.6201 43.9508 30.4349C44.5613 30.3119 45.0324 29.7916 45.0359 29.1986C44.4652 29.5619 43.8523 29.6732 43.209 29.4857V29.4845ZM38.2098 24.6752C38.15 24.7525 38.1254 24.7736 38.0539 24.6822C37.9466 24.5334 37.8011 24.4163 37.6328 24.3433C37.4645 24.2703 37.2796 24.2441 37.0976 24.2674C36.9828 24.2767 36.9898 24.224 37.0062 24.1443C37.1082 23.6638 37.5851 23.2853 38.1113 23.2806C38.6562 23.2748 39.1367 23.6381 39.2562 24.1408C39.2996 24.3248 39.1812 24.258 39.098 24.2568C38.9273 24.2507 38.7577 24.2854 38.6031 24.3582C38.4486 24.431 38.3137 24.5397 38.2098 24.6752Z" fill="#F7C200"/>
</svg>

<svg width="75" height="53" viewBox="0 0 75 53" fill="none" xmlns="http://www.w3.org/2000/svg"><path d="M0 17.125h75v18.75H0v-18.75z" fill="#E6E7E8"/><path d="M63.281.719H11.72C3.953.719 0 6.49 0 13.609v3.516h75v-3.516C75 6.49 71.047.72 63.281.72z" fill="#EC1C24"/><path d="M0 39.39c0 7.12 3.953 12.891 11.719 12.891H63.28c7.767 0 11.72-5.771 11.72-12.89v-3.516H0v3.516z" fill="#128807"/><path fill-rule="evenodd" clip-rule="evenodd" d="M43.179 32.781a17.8 17.8 0 00-10.021-.018c-.113.032-.156.009-.185-.104a5.227 5.227 0 00-.158-.54c-.039-.12-.008-.158.109-.195a18.786 18.786 0 0110.402-.003c.136.04.167.088.119.217-.067.182-.116.372-.169.56-.019.067-.039.108-.097.083zm-12.382-8.379c.092-.286.163-.533.253-.772.047-.124.021-.189-.088-.258a4.425 4.425 0 01-.595-.471c.23 0 .466-.014.695.006.184.016.254-.059.297-.22.059-.224.139-.442.228-.72.092.283.173.513.238.751.04.149.112.196.267.185.236-.014.474-.003.767-.003-.233.173-.423.322-.624.452-.125.081-.163.158-.105.306.09.225.155.462.245.742-.256-.184-.468-.333-.676-.492-.083-.064-.142-.061-.228.003-.208.162-.422.31-.674.491zm12.656-1.494c.248 0 .5-.01.748.003.133.009.186-.042.221-.165.07-.24.153-.474.247-.767.099.293.186.535.254.782.032.122.093.153.212.15.25-.007.499-.003.807-.003-.254.184-.458.347-.673.49-.093.062-.103.12-.069.219.087.245.163.494.26.792-.246-.177-.457-.318-.651-.476-.108-.087-.178-.077-.279.001-.196.155-.403.296-.648.473.094-.296.169-.546.257-.791.037-.102.023-.159-.068-.22-.214-.145-.419-.3-.626-.454l.008-.034zm-6.093-2.346c.086-.262.162-.517.256-.772.034-.096-.024-.125-.078-.165l-.682-.495c.298 0 .54-.012.78.003.16.013.219-.046.26-.192.061-.235.147-.463.257-.68.08.24.167.477.233.72.034.12.092.156.21.152.25-.008.502-.003.81-.003-.237.17-.425.32-.622.452-.123.08-.167.152-.108.302.094.224.154.462.245.745-.253-.184-.468-.333-.672-.489-.085-.064-.145-.068-.229-.002a8.54 8.54 0 01-.49.356c-.05.035-.091.094-.17.068zm-7.993 6.126c.256 0 .513-.009.769 0 .105.003.155-.029.186-.133.073-.245.157-.487.277-.74.072.215.152.427.208.646.044.171.119.246.308.228.224-.02.452-.002.74-.002-.229.166-.41.315-.607.435-.147.093-.18.183-.11.348.089.214.143.439.23.714-.25-.18-.455-.32-.652-.476-.103-.083-.178-.077-.277.006-.144.118-.3.223-.457.333-.05.035-.09.091-.174.071.077-.237.153-.478.24-.711.043-.115.016-.178-.085-.246-.207-.138-.406-.29-.609-.437.007-.014.008-.028.013-.037zm15.55 1.428c.09-.268.172-.529.263-.789.033-.09-.04-.111-.084-.145-.212-.156-.42-.31-.682-.495.298 0 .541-.009.781.002.143.007.213-.03.251-.177a3.87 3.87 0 01.265-.693c.078.24.167.476.233.72.035.121.096.152.213.15.25-.01.498-.002.811-.002-.25.179-.452.333-.66.474-.1.067-.126.13-.085.245.087.24.164.485.257.781-.257-.186-.47-.337-.677-.493-.084-.067-.145-.067-.228 0-.16.123-.322.24-.486.356-.05.034-.09.094-.172.066zm-11.332-6.542c.07-.208.122-.421.208-.62.069-.174.055-.283-.12-.382-.19-.113-.364-.26-.593-.427.302 0 .546-.007.788.004.132.004.199-.03.239-.172.065-.236.15-.47.247-.759.097.297.184.544.259.792.03.105.077.14.184.139.257-.011.51-.004.783.031-.2.146-.399.296-.6.434-.11.071-.136.14-.092.262.09.231.157.47.198.73-.19-.143-.39-.275-.575-.423-.11-.087-.195-.097-.312-.003-.183.149-.382.282-.573.422-.011-.012-.026-.019-.04-.028zm7.113-1.43c.256 0 .51-.004.765.003.108.002.158-.03.187-.135.074-.251.162-.499.26-.795.098.299.184.546.26.795.03.104.08.137.186.135.26-.012.522-.001.78.032-.206.15-.409.304-.617.448-.096.062-.115.124-.078.232.087.235.16.474.2.744-.185-.137-.38-.266-.56-.413-.122-.102-.217-.105-.34 0a3.156 3.156 0 01-.598.39c.074-.225.14-.46.224-.683.049-.137.03-.214-.096-.293-.2-.128-.387-.277-.581-.417l.008-.043zm-5.807 11.042c-.336-.011-.61-.168-.856-.384-.06-.051-.056-.083.008-.124.156-.1.391-.103.477-.233.083-.128.037-.341.115-.505.12-.265.157-.271.365-.059.025.028.05.055.074.084.253.31.253.31.652.387.194.035.2.05.098.22-.213.35-.494.6-.933.614zm3.26-.265c-.41-.016-.696-.235-.94-.534-.05-.064-.029-.095.04-.12.126-.046.249-.096.383-.104.106-.001.15-.034.164-.15.018-.193.116-.353.242-.5.063-.075.111-.085.177-.003.123.154.229.317.27.512.016.08.049.114.132.121.144.014.286.046.42.11.062.032.083.063.03.128-.233.31-.519.523-.918.54zm3.329.265c-.471-.002-.942-.337-1.07-.693-.03-.079 0-.093.07-.108.135-.032.273-.043.411-.033.095.007.13-.021.157-.114.053-.201.188-.349.346-.48.062-.056.103-.05.147.024.09.158.185.32.18.507-.002.144.06.193.188.221a.884.884 0 01.32.15c.067.045.08.084.014.146-.24.226-.516.375-.763.38z" fill="#F7C200"/><path fill-rule="evenodd" clip-rule="evenodd" d="M43.209 29.485c-.657-.193-1.104-.626-1.383-1.247l-.071.062c-1.225 1.002-3.029.382-3.326-1.172-.122-.64-.059-1.306-.02-1.958.018-.289.318-.504.61-.522.26-.013.452.111.616.299.235-.619-.024-1.372-.598-1.774a1.594 1.594 0 00-1.957.111c-.55.47-.647 1.276-.448 1.66.227-.273.508-.379.84-.238.326.141.412.423.405.76-.014.447-.002.894-.002 1.34-.007 1-.843 1.891-1.836 1.967a2.061 2.061 0 01-1.595-.528c-.544 1.234-2.002 1.728-3.212.965-.015.457.338.955.809 1.144.97.382 2.18-.218 2.466-1.222.024-.081.045-.164.074-.27.064.085.107.15.153.214.25.324.552.577.953.677.732.18 1.32-.088 1.814-.613.294-.31.477-.684.619-1.095.069.056.071.122.09.177.131.345.315.659.562.93.863.944 2.101.865 2.831-.177.024-.032.027-.085.085-.081.01.015.021.025.023.035.173 1.105 1.346 1.691 2.24 1.506.61-.123 1.081-.643 1.085-1.236-.57.363-1.184.474-1.827.287v-.002zm-5-4.81c-.059.078-.084.099-.155.007a1.02 1.02 0 00-.956-.415c-.115.01-.108-.043-.092-.123.102-.48.58-.859 1.105-.863.545-.006 1.026.357 1.145.86.044.184-.075.117-.158.116a1.072 1.072 0 00-.888.418z" fill="#F7C200"/></svg>
